X:1
T:The Royal Circus
T:The Royal Circus
T:James Porteous
C:James Porteous
L:1/8
Q:1/4=124
M:4/4
K:D
V:1 treble 
V:1
 c | d<dd<d c>dec | d<dd>f{f} e>dc>e | d<dd<d c>dec | dBAG F>E D :| F | D>AF>A D>BG>B | %7
 D>AF>A A,>ECA, | D>AF>A D>BG>B | A>dc>e dDD :| %10

